app/images/eye-close.svg

<svg width="22" height="20" viewBox="0 0 22 20" fill="none" xmlns="http://www.w3.org/2000/svg">
<path d="M4.20447 14.4205C4.27303 14.4749 4.35499 14.5017 4.43659 14.5017C4.54612 14.5017 4.65454 14.4537 4.72831 14.3613C4.85648 14.2003 4.83002 13.966 4.66907 13.8378C4.37064 13.6001 4.08153 13.3419 3.81029 13.0703L1.05401 10.314L3.89636 7.47167C6.6288 4.7396 10.6038 3.80705 14.2684 5.03729C14.4632 5.10174 14.6745 4.99742 14.7404 4.80257C14.8056 4.60771 14.7009 4.39609 14.5057 4.33052C10.5706 3.00975 6.30317 4.01122 3.36954 6.94448L0 10.314L3.2831 13.5971C3.57408 13.8885 3.88443 14.1653 4.20447 14.4205Z" fill="#686868"/>
<path d="M18.7178 6.94497C18.2156 6.44274 17.6649 5.98969 17.0807 5.59774C16.9101 5.48336 16.678 5.52882 16.5636 5.69946C16.4488 5.87009 16.4947 6.10183 16.6653 6.21659C17.2093 6.58133 17.7227 7.00383 18.1906 7.47178L20.9469 10.2281L18.1045 13.0704C15.3531 15.8219 11.2071 16.7522 7.54139 15.4385C7.34765 15.3688 7.13417 15.4698 7.06487 15.6635C6.99557 15.8573 7.09617 16.0704 7.2899 16.14C8.47543 16.5648 9.70789 16.7708 10.9322 16.7708C13.7715 16.7708 16.5669 15.6617 18.6314 13.5972L22.0005 10.2281L18.7178 6.94497Z" fill="#686868"/>
<path d="M11.3777 14.5639C10.5756 14.5639 9.79392 14.3411 9.11621 13.9193C8.94222 13.8113 8.71235 13.8642 8.60318 14.0389C8.49439 14.2136 8.54804 14.4431 8.72278 14.5519C9.51822 15.0475 10.4366 15.309 11.3777 15.309C14.1512 15.309 16.4074 13.0527 16.4074 10.2793C16.4074 9.27893 16.1142 8.31247 15.5598 7.48425C15.4451 7.31324 15.2134 7.26741 15.0431 7.38179C14.8721 7.49654 14.8263 7.72791 14.9406 7.89855C15.4127 8.60382 15.6623 9.42684 15.6623 10.2793C15.6623 12.6421 13.7402 14.5639 11.3777 14.5639Z" fill="#686868"/>
<path d="M11.3777 5.99466C12.1471 5.99466 12.9012 6.20069 13.5592 6.59077C13.7358 6.69546 13.9645 6.63734 14.0696 6.46C14.1743 6.28303 14.1162 6.05464 13.9388 5.94957C13.1661 5.49168 12.2805 5.24951 11.3774 5.24951C8.60395 5.24951 6.34766 7.50581 6.34766 10.2792C6.34766 11.0557 6.51978 11.8004 6.85957 12.4927C6.9244 12.6246 7.05666 12.7013 7.19451 12.7013C7.24928 12.7013 7.30554 12.689 7.35807 12.6633C7.54287 12.5724 7.61924 12.3492 7.52871 12.1648C7.23959 11.5754 7.0928 10.9413 7.0928 10.2796C7.09317 7.91675 9.01527 5.99466 11.3777 5.99466Z" fill="#686868"/>
<path d="M20.3493 1.0741C20.2037 0.928425 19.9682 0.928425 19.8225 1.0741L2.49793 18.3987C2.35225 18.5444 2.35225 18.7798 2.49793 18.9255C2.57058 18.9982 2.66596 19.0347 2.76134 19.0347C2.85672 19.0347 2.95209 18.9982 3.02475 18.9255L20.3493 1.60092C20.495 1.45561 20.495 1.21978 20.3493 1.0741Z" fill="#686868"/>
</svg>

<svg width="22" height="20" fill="none" xmlns="http://www.w3.org/2000/svg"><path d="M4.204 14.42a.373.373 0 0 0 .465-.582 10.198 10.198 0 0 1-.859-.768l-2.756-2.756 2.842-2.842a10.058 10.058 0 0 1 10.372-2.435.373.373 0 0 0 .237-.707A10.8 10.8 0 0 0 3.37 6.945L0 10.314l3.283 3.283c.291.292.601.568.921.824zM18.718 6.945a10.942 10.942 0 0 0-1.637-1.347.373.373 0 0 0-.416.619c.544.364 1.058.787 1.526 1.255l2.756 2.756-2.842 2.842A10.156 10.156 0 0 1 7.54 15.438a.372.372 0 1 0-.251.702 10.901 10.901 0 0 0 11.341-2.543l3.37-3.369-3.283-3.283z" fill="#686868"/><path d="M11.378 14.564a4.274 4.274 0 0 1-2.262-.645.373.373 0 0 0-.393.633 5.015 5.015 0 0 0 2.655.757 5.035 5.035 0 0 0 5.03-5.03c0-1-.294-1.967-.848-2.795a.373.373 0 0 0-.62.415c.473.705.722 1.528.722 2.38a4.29 4.29 0 0 1-4.284 4.285zM11.378 5.995c.77 0 1.523.206 2.181.596a.373.373 0 0 0 .38-.641 5.026 5.026 0 0 0-2.562-.7 5.035 5.035 0 0 0-4.517 7.243.373.373 0 0 0 .669-.328 4.29 4.29 0 0 1 3.849-6.17zM20.35 1.074a.372.372 0 0 0-.527 0L2.498 18.4a.372.372 0 1 0 .527.526L20.349 1.601a.372.372 0 0 0 0-.527z" fill="#686868"/></svg>
